X:583
T:Pastor
R:Tonada
C:Tradicional
S:Msica Tradicional Asturiana, (C) Tello & Tito. Asturies, 2001.
S:http://pagina.de/MusTradAst <telloytito@asturies.org>
N:posible errata en |^GGA|
A:Asturies
B:Musicologa Asturiana - La Cancin Tradicional, Modesto Gonzlez Cobas
Z:La Cancin Tradicional, M.G.C.
M:3/8
L:1/8
Q:3/8=80
K:Am
E
|AA^G|A2 ^G|A^GA|BcB|A2 G|(3F/G/F/ E2-|E z B|
|BcA|B2 G|FE F/ (3G/4F/4E/4|D2 D|
|^GGA|B2 A|ccB|A/-B/4B/4A/4G/4 F/G/4A/4G/4F/4|E3|
W:pastor que'ests en el monte de amores tan retirado
W:yo te vengo a proponer pastor si quisieras ser casado pastor pastor
W:
